vectors/nuki/nuki.svg

<svg clip-rule="evenodd" fill-rule="evenodd" stroke-linejoin="round" stroke-miterlimit="2" version="1.1" viewBox="28 28 1024 1024" xml:space="preserve" xmlns="http://www.w3.org/2000/svg">
    <g transform="matrix(.94815 0 0 .94815 28 28)">
        <circle cx="540" cy="540" r="540"/>
        <path d="m540 0c298.03 0 540 241.97 540 540s-241.97 540-540 540-540-241.97-540-540 241.97-540 540-540zm0 75.938c256.12 0 464.06 207.94 464.06 464.06s-207.94 464.06-464.06 464.06-464.06-207.94-464.06-464.06 207.94-464.06 464.06-464.06z" fill="#fff"/>
    </g>
    <g transform="matrix(.24604 0 0 .24604 288.35 352.9)">
        <g transform="matrix(4.1667 0 0 4.1667 -37.536 1037.1)">
            <path d="m0-127.1c0-1.858 1.672-3.344 3.53-3.344h4.645l74.139 71.352h0.186v-65.964c0-1.858 1.487-3.531 3.531-3.531h22.297c1.859 0 3.531 1.673 3.531 3.531v125.05c0 1.859-1.672 3.345-3.531 3.345h-2.973c-0.557 0-2.044-0.557-2.415-0.929l-73.396-73.768h-0.186v69.309c0 1.858-1.487 3.53-3.531 3.53h-22.111c-1.858 0-3.53-1.672-3.53-3.53l-0.186-125.05z" fill="#fff" fill-rule="nonzero"/>
        </g>
        <g transform="matrix(4.1667 0 0 4.1667 653.07 1036.3)">
            <path d="m0-124.86c0-1.858 1.672-3.531 3.53-3.531h22.855c2.044 0 3.531 1.673 3.531 3.531v75.254c0 13.007 9.662 23.412 22.855 23.412 13.378 0 23.226-10.405 23.226-23.412v-75.254c0-1.858 1.487-3.531 3.53-3.531h22.856c1.858 0 3.53 1.673 3.53 3.531v76.74c0 28.244-23.784 51.656-53.142 51.656-29.173 0-52.771-23.412-52.771-51.656v-76.74z" fill="#fff" fill-rule="nonzero"/>
        </g>
        <g transform="matrix(4.1667 0 0 4.1667 1320.4 1024.7)">
            <path d="m0-121.15c0-2.416 1.858-4.46 4.46-4.46h21.74c2.415 0 4.459 2.044 4.459 4.46v48.869l41.25-51.47c0.743-0.929 2.416-1.859 3.53-1.859h23.413c3.531 0 5.389 4.088 3.345 6.876l-43.481 54.443 47.383 61.689c2.044 2.787 0 6.876-3.531 6.876h-25.642c-1.3 0-2.973-0.744-3.344-1.301l-42.923-58.345v55.372c0 2.415-2.044 4.459-4.459 4.459h-21.74c-2.602 0-4.46-2.044-4.46-4.459v-121.15z" fill="#fff" fill-rule="nonzero"/>
        </g>
        <g transform="matrix(4.1667 0 0 4.1667 1942.9 1028.6)">
            <path d="m0-123.01c0-1.858 1.672-3.531 3.53-3.531h22.298c1.858 0 3.53 1.673 3.53 3.531v123.01c0 1.858-1.672 3.53-3.53 3.53h-22.298c-1.858 0-3.53-1.672-3.53-3.53v-123.01z" fill="#fff" fill-rule="nonzero"/>
        </g>
        <g transform="matrix(0 4.1667 4.1667 0 2003.4 106.84)">
            <path d="m19.221-18.892c-10.842 0-19.385 8.214-19.385 18.727 0 10.844 8.543 19.386 19.385 19.386 10.514 0 19.056-8.542 19.056-19.386 0-10.513-8.542-18.727-19.056-18.727" fill="#ffcc3e" fill-rule="nonzero"/>
        </g>
    </g>
</svg>

<svg version="1.1" xmlns="http://www.w3.org/2000/svg" xmlns:xlink="http://www.w3.org/1999/xlink" xml:space="preserve" xmlns:serif="http://www.serif.com/" style="fill-rule:evenodd;clip-rule:evenodd;stroke-linejoin:round;stroke-miterlimit:2;" viewBox="28.00 28.00 1024.00 1024.00">
    <g transform="matrix(0.948148,0,0,0.948148,28,28)">
        <circle cx="540" cy="540" r="540"></circle>
        <path d="M540,0C838.034,0 1080,241.966 1080,540C1080,838.034 838.034,1080 540,1080C241.966,1080 0,838.034 0,540C0,241.966 241.966,0 540,0ZM540,75.938C796.123,75.938 1004.06,283.877 1004.06,540C1004.06,796.123 796.123,1004.06 540,1004.06C283.877,1004.06 75.938,796.123 75.938,540C75.938,283.877 283.877,75.938 540,75.938Z" style="fill:white;"></path>
    </g>
    <g id="white" transform="matrix(0.246039,0,0,0.246039,288.346,352.896)">
        <g transform="matrix(4.16667,0,0,4.16667,-37.5355,1037.1)">
            <path d="M0,-127.096C0,-128.954 1.672,-130.44 3.53,-130.44L8.175,-130.44L82.314,-59.088L82.5,-59.088L82.5,-125.052C82.5,-126.91 83.987,-128.583 86.031,-128.583L108.328,-128.583C110.187,-128.583 111.859,-126.91 111.859,-125.052L111.859,-0.001C111.859,1.858 110.187,3.344 108.328,3.344L105.355,3.344C104.798,3.344 103.311,2.787 102.94,2.415L29.544,-71.353L29.358,-71.353L29.358,-2.044C29.358,-0.186 27.871,1.486 25.827,1.486L3.716,1.486C1.858,1.486 0.186,-0.186 0.186,-2.044L0,-127.096Z" style="fill:white;fill-rule:nonzero;"></path>
        </g>
        <g transform="matrix(4.16667,0,0,4.16667,653.073,1036.32)">
            <path d="M0,-124.865C0,-126.723 1.672,-128.396 3.53,-128.396L26.385,-128.396C28.429,-128.396 29.916,-126.723 29.916,-124.865L29.916,-49.611C29.916,-36.604 39.578,-26.199 52.771,-26.199C66.149,-26.199 75.997,-36.604 75.997,-49.611L75.997,-124.865C75.997,-126.723 77.484,-128.396 79.527,-128.396L102.383,-128.396C104.241,-128.396 105.913,-126.723 105.913,-124.865L105.913,-48.125C105.913,-19.881 82.129,3.531 52.771,3.531C23.598,3.531 0,-19.881 0,-48.125L0,-124.865Z" style="fill:white;fill-rule:nonzero;"></path>
        </g>
        <g transform="matrix(4.16667,0,0,4.16667,1320.45,1024.71)">
            <path d="M0,-121.149C0,-123.565 1.858,-125.609 4.46,-125.609L26.2,-125.609C28.615,-125.609 30.659,-123.565 30.659,-121.149L30.659,-72.28L71.909,-123.75C72.652,-124.679 74.325,-125.609 75.439,-125.609L98.852,-125.609C102.383,-125.609 104.241,-121.521 102.197,-118.733L58.716,-64.29L106.099,-2.601C108.143,0.186 106.099,4.275 102.568,4.275L76.926,4.275C75.626,4.275 73.953,3.531 73.582,2.974L30.659,-55.371L30.659,0.001C30.659,2.416 28.615,4.46 26.2,4.46L4.46,4.46C1.858,4.46 0,2.416 0,0.001L0,-121.149Z" style="fill:white;fill-rule:nonzero;"></path>
        </g>
        <g transform="matrix(4.16667,0,0,4.16667,1942.91,1028.58)">
            <path d="M0,-123.007C0,-124.865 1.672,-126.538 3.53,-126.538L25.828,-126.538C27.686,-126.538 29.358,-124.865 29.358,-123.007L29.358,0.001C29.358,1.859 27.686,3.531 25.828,3.531L3.53,3.531C1.672,3.531 0,1.859 0,0.001L0,-123.007Z" style="fill:white;fill-rule:nonzero;"></path>
        </g>
        <g transform="matrix(0,4.16667,4.16667,0,2003.39,106.839)">
            <path d="M19.221,-18.892C8.379,-18.892 -0.164,-10.678 -0.164,-0.165C-0.164,10.679 8.379,19.221 19.221,19.221C29.735,19.221 38.277,10.679 38.277,-0.165C38.277,-10.678 29.735,-18.892 19.221,-18.892" style="fill:rgb(255,204,62);fill-rule:nonzero;"></path>
        </g>
    </g>
</svg>
